assets/sonr-icons/starz.svg

<svg xmlns="http://www.w3.org/2000/svg" width="24" height="24" fill="none"><path fill="currentColor" d="M9.1 8.053.707 5.976l5.576 6.614-4.574 7.348 8.016-3.26 5.576 6.614-.625-8.626 8.016-3.26-8.393-2.077-.625-8.626L9.1 8.052z"/></svg>

<svg xmlns="http://www.w3.org/2000/svg" width="24" height="24" fill="none" viewBox="0 0 24 24"><path fill="#000" d="M9.1 8.053L0.707001 5.976L6.283 12.59L1.709 19.938L9.725 16.678L15.301 23.292L14.676 14.666L22.692 11.406L14.299 9.329L13.674 0.703003L9.1 8.052V8.053Z"/></svg>
